public/assets/reply.svg

<svg xmlns="http://www.w3.org/2000/svg" width="24" height="24" viewBox="0 0 24 24" fill="none">
  <path d="M9.76744 12C9.76744 12.411 9.43426 12.7442 9.02326 12.7442C8.61225 12.7442 8.27907 12.411 8.27907 12C8.27907 11.589 8.61225 11.2558 9.02326 11.2558C9.43426 11.2558 9.76744 11.589 9.76744 12Z" fill="#5C5C7B"/>
  <path d="M12.7442 12C12.7442 12.411 12.411 12.7442 12 12.7442C11.589 12.7442 11.2558 12.411 11.2558 12C11.2558 11.589 11.589 11.2558 12 11.2558C12.411 11.2558 12.7442 11.589 12.7442 12Z" fill="#5C5C7B"/>
  <path d="M15.7209 12C15.7209 12.411 15.3877 12.7442 14.9767 12.7442C14.5657 12.7442 14.2326 12.411 14.2326 12C14.2326 11.589 14.5657 11.2558 14.9767 11.2558C15.3877 11.2558 15.7209 11.589 15.7209 12Z" fill="#5C5C7B"/>
  <path fill-rule="evenodd" clip-rule="evenodd" d="M20 12C20 7.58172 16.4183 4 12 4C7.58172 4 4 7.58172 4 12C4 13.2787 4.30043 14.4889 4.83507 15.5623C4.91485 15.7225 4.93178 15.886 4.89496 16.0236L4.45172 17.6802C4.1483 18.8142 5.18576 19.8517 6.31978 19.5483L7.97637 19.105C8.11396 19.0682 8.27751 19.0851 8.43769 19.1649C9.51109 19.6996 10.7213 20 12 20C16.4183 20 20 16.4183 20 12ZM12 5.11628C15.8018 5.11628 18.8837 8.19823 18.8837 12C18.8837 15.8018 15.8018 18.8837 12 18.8837C10.8978 18.8837 9.85764 18.6251 8.93537 18.1657C8.56521 17.9814 8.12259 17.9104 7.68784 18.0267L6.03125 18.4699C5.727 18.5513 5.44866 18.273 5.53006 17.9687L5.97331 16.3122C6.08963 15.8774 6.01864 15.4348 5.83427 15.0646C5.3749 14.1424 5.11628 13.1022 5.11628 12C5.11628 8.19823 8.19823 5.11628 12 5.11628Z" fill="#5C5C7B"/>
</svg>

<?xml version="1.0" encoding="utf-8"?>
<!-- Generator: Adobe Illustrator 28.0.0, SVG Export Plug-In . SVG Version: 6.00 Build 0)  -->
<svg version="1.1" id="Layer_1" xmlns="http://www.w3.org/2000/svg" xmlns:xlink="http://www.w3.org/1999/xlink" x="0px" y="0px"
	 viewBox="0 0 24 24" style="enable-background:new 0 0 24 24;" xml:space="preserve">
<style type="text/css">
	.st0{fill:#1D9BF0;}
	.st1{fill-rule:evenodd;clip-rule:evenodd;fill:#1D9BF0;}
</style>
<path class="st0" d="M9.8,12c0,0.4-0.3,0.7-0.7,0.7c-0.4,0-0.7-0.3-0.7-0.7s0.3-0.7,0.7-0.7C9.4,11.3,9.8,11.6,9.8,12z"/>
<path class="st0" d="M12.7,12c0,0.4-0.3,0.7-0.7,0.7s-0.7-0.3-0.7-0.7s0.3-0.7,0.7-0.7S12.7,11.6,12.7,12z"/>
<path class="st0" d="M15.7,12c0,0.4-0.3,0.7-0.7,0.7s-0.7-0.3-0.7-0.7s0.3-0.7,0.7-0.7S15.7,11.6,15.7,12z"/>
<path class="st1" d="M20,12c0-4.4-3.6-8-8-8c-4.4,0-8,3.6-8,8c0,1.3,0.3,2.5,0.8,3.6c0.1,0.2,0.1,0.3,0.1,0.5l-0.4,1.7
	c-0.3,1.1,0.7,2.2,1.9,1.9L8,19.1c0.1,0,0.3,0,0.5,0.1C9.5,19.7,10.7,20,12,20C16.4,20,20,16.4,20,12z M12,5.1
	c3.8,0,6.9,3.1,6.9,6.9c0,3.8-3.1,6.9-6.9,6.9c-1.1,0-2.1-0.3-3.1-0.7C8.6,18,8.1,17.9,7.7,18L6,18.5c-0.3,0.1-0.6-0.2-0.5-0.5
	L6,16.3c0.1-0.4,0-0.9-0.1-1.2c-0.5-0.9-0.7-2-0.7-3.1C5.1,8.2,8.2,5.1,12,5.1z"/>
</svg>
